packages/core/assets/Icons/hourglass_empty.svg

<svg viewBox="0 0 20 20" fill="none" xmlns="http://www.w3.org/2000/svg">
<path d="M6.66666 16.6666H13.3333V14.1666C13.3333 13.25 13.0069 12.4652 12.3542 11.8125C11.7014 11.1597 10.9167 10.8333 9.99999 10.8333C9.08333 10.8333 8.29861 11.1597 7.64583 11.8125C6.99305 12.4652 6.66666 13.25 6.66666 14.1666V16.6666ZM9.99999 9.16663C10.9167 9.16663 11.7014 8.84024 12.3542 8.18746C13.0069 7.53468 13.3333 6.74996 13.3333 5.83329V3.33329H6.66666V5.83329C6.66666 6.74996 6.99305 7.53468 7.64583 8.18746C8.29861 8.84024 9.08333 9.16663 9.99999 9.16663ZM4.16666 18.3333C3.93055 18.3333 3.73263 18.2534 3.57291 18.0937C3.41319 17.934 3.33333 17.7361 3.33333 17.5C3.33333 17.2638 3.41319 17.0659 3.57291 16.9062C3.73263 16.7465 3.93055 16.6666 4.16666 16.6666H4.99999V14.1666C4.99999 13.3194 5.19791 12.5243 5.59374 11.7812C5.98958 11.0382 6.54166 10.4444 7.24999 9.99996C6.54166 9.55551 5.98958 8.96176 5.59374 8.21871C5.19791 7.47565 4.99999 6.68051 4.99999 5.83329V3.33329H4.16666C3.93055 3.33329 3.73263 3.25343 3.57291 3.09371C3.41319 2.93399 3.33333 2.73607 3.33333 2.49996C3.33333 2.26385 3.41319 2.06593 3.57291 1.90621C3.73263 1.74649 3.93055 1.66663 4.16666 1.66663H15.8333C16.0694 1.66663 16.2674 1.74649 16.4271 1.90621C16.5868 2.06593 16.6667 2.26385 16.6667 2.49996C16.6667 2.73607 16.5868 2.93399 16.4271 3.09371C16.2674 3.25343 16.0694 3.33329 15.8333 3.33329H15V5.83329C15 6.68051 14.8021 7.47565 14.4062 8.21871C14.0104 8.96176 13.4583 9.55551 12.75 9.99996C13.4583 10.4444 14.0104 11.0382 14.4062 11.7812C14.8021 12.5243 15 13.3194 15 14.1666V16.6666H15.8333C16.0694 16.6666 16.2674 16.7465 16.4271 16.9062C16.5868 17.0659 16.6667 17.2638 16.6667 17.5C16.6667 17.7361 16.5868 17.934 16.4271 18.0937C16.2674 18.2534 16.0694 18.3333 15.8333 18.3333H4.16666Z" fill="currentColor"/>
</svg>

<svg xmlns="http://www.w3.org/2000/svg" width="20" height="20" fill="none" viewBox="0 0 20 20">
  <path fill="#201F1F" d="M6.667 16.667h6.666v-2.5a3.21 3.21 0 0 0-.979-2.354 3.21 3.21 0 0 0-2.354-.98 3.21 3.21 0 0 0-2.354.98 3.21 3.21 0 0 0-.98 2.354v2.5ZM10 9.167a3.21 3.21 0 0 0 2.354-.98 3.21 3.21 0 0 0 .98-2.354v-2.5H6.666v2.5c0 .917.326 1.702.979 2.354a3.21 3.21 0 0 0 2.354.98Zm-5.833 9.166a.806.806 0 0 1-.594-.24.806.806 0 0 1-.24-.593c0-.236.08-.434.24-.594.16-.16.358-.24.594-.24H5v-2.5c0-.847.198-1.642.594-2.385A4.644 4.644 0 0 1 7.25 10a4.644 4.644 0 0 1-1.656-1.781A4.998 4.998 0 0 1 5 5.833v-2.5h-.833a.806.806 0 0 1-.594-.24.806.806 0 0 1-.24-.593c0-.236.08-.434.24-.594.16-.16.358-.24.594-.24h11.666c.236 0 .434.08.594.24.16.16.24.358.24.594s-.08.434-.24.594a.806.806 0 0 1-.594.24H15v2.5c0 .847-.198 1.642-.594 2.385A4.644 4.644 0 0 1 12.75 10a4.644 4.644 0 0 1 1.656 1.781c.396.743.594 1.538.594 2.386v2.5h.833c.236 0 .434.08.594.24.16.159.24.357.24.593s-.08.434-.24.594a.807.807 0 0 1-.594.24H4.167Z"/>
</svg>
